images/klondikeWastePlaceholder.svg

<svg xmlns="http://www.w3.org/2000/svg" width="179" height="250" viewBox="0 0 179 250">
    <path fill-opacity=".199" d="M166.138 0C173.241 0 179 5.643 179 12.605v224.79c0 6.962-5.759 12.605-12.862 12.605H12.862C5.759 250 0 244.357 0 237.395V12.605C0 5.643 5.759 0 12.862 0zm0 6H12.862C9.046 6 6 8.985 6 12.605v166.034c.22-2.19.884-4.298 1.546-6.384q1.31-3.775 3.344-7.568 2.035-3.792 4.27-7.334t4.362-6.602 3.695-5.493q2.929-4.567 4.809-7.562t2.953-5.297l.916.896q-1.741 4.666-2.227 9.859-.487 5.194-.327 10.824.161 5.631.736 11.695.576 6.063.915 12.455.34 6.391.167 13.093-.172 6.702-1.449 13.664l.173.058q3.052-7.407 5.126-14.289t3.458-14.215 2.154-15.461 1.244-17.943q.243-5.459 1.274-10.176t2.237-8.232 2.349-5.72q1.145-2.205 1.673-2.694.646-.598 1.135-.287.489.31.712.975.392 1.164-.095 2.923-.486 1.759-1.263 3.569t-1.524 3.483q-.746 1.672-.905 2.801-.322 2.479.005 6.428.327 3.95.901 8.979l1.227 10.75q.652 5.72.983 11.628t.184 11.769-1.229 11.115l.173.058q2.211-5.101 4.607-11.026 2.395-5.926 4.55-12.338 2.156-6.412 3.808-13.176t2.374-13.43q.723-6.666.327-13.114-.397-6.448-2.381-12.352-.869-.067-1.6-.753t-1.29-2.349q-.643-1.913-.118-4.361.524-2.448 1.874-3.698 1.056-.979 2.102-1.075t1.966.469q.921.565 1.646 1.692t1.2 2.541q1.537 4.574 1.636 10.48.099 5.905-.796 12.403-.894 6.499-2.605 13.317t-3.781 13.369-4.247 12.439q-2.178 5.887-4.063 10.468t-3.244 7.638q-1.358 3.058-1.747 3.963-1.372 3.015-1.998 4.358-.627 1.343-.956 2.194l-1.568.144q.654-3.55.14-8.744t-1.382-11.096-1.63-12.065-.55-11.485l-.174-.058q-.822 12.211-2.576 21.304-1.754 9.094-3.662 15.44-1.908 6.347-3.505 9.952-1.598 3.606-2.02 4.869-.181.605-.549 2.145-.368 1.539-.883 3.325-.516 1.787-1.174 3.377-.659 1.591-1.422 2.298-.528.489-.902.291-.375-.198-.571-.78-.223-.666-.055-1.312.167-.646.468-1.469.3-.824.574-1.841t.26-2.203q.02-6.125-.62-11.693-.639-5.568-1.296-10.957t-1.109-10.858q-.453-5.469-.102-11.409t1.741-12.57q1.389-6.63 4.416-14.34l-.173-.058-9.473 15.097q-5.506 8.807-7.861 16.113t-.594 12.545q.754 2.245 2.395 3.233 1.64.989 3.519-.751 1.173-1.087 1.786-2.472.612-1.384.805-2.871t.022-2.911q-.17-1.423-.534-2.504-.335-.998-.715-1.9t-.892-1.736l.587-.544q.484.752.923 1.599.438.848.802 1.929 1.537 4.573.231 9.163t-4.533 7.578q-1.233 1.142-2.527 1.414-1.294.271-2.448-.186-1.155-.458-2.083-1.616-.927-1.158-1.486-2.821c-.551-2.004-.395-1.082-.566-2.748v53.514c0 3.62 3.046 6.605 6.862 6.605h153.276c3.816 0 6.862-2.985 6.862-6.605V60.451c-.418 2.436-.979 4.845-1.524 7.255q-2.205 9.239-5.07 15.599-2.865 6.361-7.561 10.71-4.05 3.75-7.057 3.046t-4.712-5.776l-.364-1.335c-.353 2.075-.009.061-1.305 5.988q-1.423 5.842-3.648 10.901t-5.747 8.321q-2.7 2.501-4.705 1.686-2.005-.814-3.095-4.057-.559-1.663-.781-3.584l-.088-.956c-1.578 6.35-.781 3.596-2.253 8.303q-1.96 5.85-5.057 11.062-3.097 5.213-7.851 9.616-1.761 1.63-3.484 2.572-1.723.941-3.202.893t-2.697-1.155c-.766-.829-.438-.383-.992-1.333-.618 2.9-1.543 5.719-2.564 8.498q-1.559 3.951-3.848 6.071-1.996 1.848-3.36 1.912t-2.323-.846q-.96-.91-1.552-2.326-.591-1.415-.982-2.579l-.232-.003q-.408 2.449-.963 5.035t-1.413 5.07q-.858 2.485-2.001 4.58-1.143 2.094-2.728 3.562-2.818 2.609-5.052 1.571-2.235-1.038-3.995-6.277-1.23-3.659-1.238-8.722t1.293-10.465q1.301-5.403 3.89-10.526 2.588-5.123 6.521-8.765 2.289-2.12 4.037-1.613t2.911 2.593l.117-.109.073-5.738 8.223-8.051q-.198 1.928-.527 4.958t-.692 6.529q-.364 3.499-.657 7.206-.294 3.706-.424 7.098t-.02 6.124q.111 2.733.614 4.23.81 2.412 2.16 1.161 1.233-1.141 2.347-4.354c.757-2.185 1.354-4.423 1.892-6.672-.293-.502-.074-.106-.516-1.254q-1.034-3.077-.255-6.142.778-3.065 2.598-4.75l.588-.467c.861-5.654.509-3.21 1.084-7.329-.46-.657-.225-.257-.629-1.239q-.671-1.996-.64-4.423t.804-5.052q.773-2.623 2.313-5.14t3.888-4.691q3.404-3.153 6.091-3.515t3.722 2.714q.782 2.328.156 4.816t-2.152 3.902q-1.35 1.25-2.86 1.339.104-1.295.003-2.51-.1-1.216-.519-2.463-.699-2.079-1.933-3.117t-2.76.375q-1.35 1.251-1.666 3.288t.411 4.199q.699 2.079 2.18 3.051 1.481.973 3.095 1.768t3.137 1.892 2.334 3.509q.95 2.827.697 5.624t-1.628 6.033l.173.058q2.188-3.336 3.912-7.712t3.003-9.269c1.216-5.165.855-3.272 1.291-5.637l-.002-1.063q.025-3.131.23-7.791.204-4.66.584-11.772l-4.754 4.403-.036-1.711 4.871-4.512.937-16.678 8.019-7.972-1.091 17.366 8.042-7.447-.023 1.765-8.1 7.502q-.151 2.757-.499 7.331-.348 4.575-.583 9.372-.235 4.798-.202 9.019.034 4.222.732 6.301.475 1.413 1.257 1.562t1.779-.775q1.526-1.413 2.823-4.195t2.385-6.299q1.089-3.516 1.907-7.381c.802-3.935.538-2.538.845-4.178-.511-4.923-.47-2.678-.315-6.726q.447-5.539 2.14-10.923t4.246-10.038 5.371-7.264 5.07-3.005l.543-.047c1.533.138 2.174 1.248 2.688 2.561q.978 2.911-.291 6.921-1.27 4.01-3.482 8.076t-4.65 7.578q-2.437 3.511-3.854 5.477.162.941.383 1.827.221.885.5 1.717.503 1.497 1.227 2.735t1.645 1.802q.921.565 2.054.387t2.483-1.427q2.759-2.555 4.964-8.359t3.981-13.118q1.104-4.73 1.765-8.832l.175-1.121v-43.68C173 8.985 169.954 6 166.138 6M83.861 123.601c-1.258.418-.762.124-1.562.741q-1.232 1.142-2.103 3.475t-1.417 5.401q-.547 3.069-.808 6.527-.262 3.459-.231 6.756.03 3.298.399 6.227t1.012 4.843q.475 1.413 1.318 2.432.842 1.019 2.016-.068 1.233-1.142 2.415-5.181 1.183-4.039 1.887-9.271.705-5.232.671-10.599-.033-5.366-1.291-9.108-.642-1.913-1.756-2.135zm21.326-5.65-.945 6.583c.927-.363.474-.293 1.347-.28q1.216.182 1.887 2.178.615 1.829.159 3.451-.456 1.621-1.395 2.491-.704.652-1.258.837-.069.938.238 1.852.894 2.661 2.381 3.192t3.424-1.262q2.524-2.338 3.058-5.558.534-3.221-.444-6.131-.587-1.746-1.909-2.703t-2.805-1.818q-1.482-.863-2.818-1.861c-.752-.66-.463-.32-.92-.971m53.002-63.462c-.873.342-.515.12-1.112.601q-1.291 1.196-2.159 4.453t-1.249 7.045q-.382 3.788-.399 7.402t.363 5.661q2.214-3.032 3.663-6.391t2.186-6.549.714-6.005q-.022-2.814-.693-4.81c-.331-.911-.403-1.104-1.314-1.407"/>
</svg>

<?xml version="1.0" encoding="UTF-8"?>
<!DOCTYPE svg PUBLIC "-//W3C//DTD SVG 1.1//EN" "http://www.w3.org/Graphics/SVG/1.1/DTD/svg11.dtd">
<svg version="1.1" xmlns="http://www.w3.org/2000/svg" xmlns:xlink="http://www.w3.org/1999/xlink" x="0" y="0" width="179" height="250" viewBox="0, 0, 179, 250">
  <g id="Waste" transform="translate(0, 0)">
    <path d="M166.138,-0 C173.241,-0 179,5.643 179,12.605 L179,237.395 C179,244.357 173.241,250 166.138,250 L12.862,250 C5.759,250 -0,244.357 -0,237.395 L-0,12.605 C-0,5.643 5.759,-0 12.862,-0 L166.138,-0 z M166.138,6 L12.862,6 C9.046,6 6,8.985 6,12.605 L6,178.639 C6.22,176.449 6.884,174.341 7.546,172.255 Q8.856,168.48 10.89,164.687 Q12.925,160.895 15.16,157.353 Q17.395,153.812 19.522,150.751 Q21.649,147.691 23.217,145.258 Q26.146,140.691 28.026,137.696 Q29.906,134.702 30.979,132.399 L31.895,133.295 Q30.154,137.961 29.668,143.154 Q29.181,148.348 29.341,153.978 Q29.502,159.609 30.077,165.673 Q30.653,171.736 30.992,178.128 Q31.332,184.519 31.159,191.221 Q30.987,197.923 29.71,204.885 L29.883,204.943 Q32.935,197.536 35.009,190.654 Q37.083,183.772 38.467,176.439 Q39.851,169.106 40.621,160.978 Q41.392,152.85 41.865,143.035 Q42.108,137.576 43.139,132.859 Q44.171,128.141 45.376,124.627 Q46.581,121.112 47.725,118.907 Q48.87,116.702 49.398,116.213 Q50.044,115.615 50.533,115.926 Q51.022,116.236 51.245,116.901 Q51.637,118.065 51.15,119.824 Q50.664,121.583 49.887,123.393 Q49.11,125.203 48.363,126.876 Q47.617,128.548 47.458,129.677 Q47.136,132.156 47.463,136.105 Q47.79,140.055 48.364,145.084 Q48.938,150.114 49.591,155.834 Q50.243,161.554 50.574,167.462 Q50.905,173.371 50.758,179.231 Q50.611,185.092 49.529,190.346 L49.702,190.404 Q51.913,185.303 54.309,179.378 Q56.704,173.452 58.859,167.04 Q61.015,160.628 62.667,153.864 Q64.319,147.1 65.041,140.434 Q65.764,133.768 65.368,127.32 Q64.971,120.872 62.987,114.968 Q62.118,114.901 61.387,114.215 Q60.656,113.529 60.097,111.866 Q59.454,109.953 59.979,107.505 Q60.503,105.057 61.853,103.807 Q62.909,102.828 63.955,102.732 Q65,102.637 65.921,103.201 Q66.842,103.766 67.567,104.893 Q68.292,106.021 68.767,107.434 Q70.304,112.008 70.403,117.914 Q70.502,123.819 69.607,130.317 Q68.713,136.816 67.002,143.634 Q65.291,150.452 63.221,157.003 Q61.151,163.554 58.974,169.442 Q56.796,175.329 54.911,179.91 Q53.026,184.491 51.667,187.548 Q50.309,190.606 49.92,191.511 Q48.548,194.526 47.922,195.869 Q47.295,197.212 46.966,198.063 L45.398,198.207 Q46.052,194.657 45.538,189.463 Q45.024,184.269 44.156,178.367 Q43.289,172.464 42.526,166.302 Q41.763,160.139 41.976,154.817 L41.802,154.759 Q40.98,166.97 39.226,176.063 Q37.472,185.157 35.564,191.503 Q33.656,197.85 32.059,201.455 Q30.461,205.061 30.039,206.324 Q29.858,206.929 29.49,208.469 Q29.122,210.008 28.607,211.794 Q28.091,213.581 27.433,215.171 Q26.774,216.762 26.011,217.469 Q25.483,217.958 25.109,217.76 Q24.734,217.562 24.538,216.98 Q24.315,216.314 24.483,215.668 Q24.65,215.022 24.951,214.199 Q25.251,213.375 25.525,212.358 Q25.799,211.341 25.785,210.155 Q25.805,204.03 25.165,198.462 Q24.526,192.894 23.869,187.505 Q23.212,182.116 22.76,176.647 Q22.307,171.178 22.658,165.238 Q23.009,159.297 24.399,152.668 Q25.788,146.038 28.815,138.328 L28.642,138.27 L19.169,153.367 Q13.663,162.174 11.308,169.48 Q8.953,176.786 10.714,182.025 Q11.468,184.27 13.109,185.258 Q14.749,186.247 16.628,184.507 Q17.801,183.42 18.414,182.035 Q19.026,180.651 19.219,179.164 Q19.412,177.677 19.241,176.253 Q19.071,174.83 18.707,173.749 Q18.372,172.751 17.992,171.849 Q17.612,170.947 17.1,170.113 L17.687,169.569 Q18.171,170.321 18.61,171.168 Q19.048,172.016 19.412,173.097 Q20.949,177.67 19.643,182.26 Q18.338,186.849 15.11,189.838 Q13.877,190.98 12.583,191.252 Q11.289,191.523 10.135,191.066 Q8.98,190.608 8.052,189.45 Q7.125,188.292 6.566,186.629 C6.015,184.625 6.171,185.547 6,183.881 L6,237.395 C6,241.015 9.046,244 12.862,244 L166.138,244 C169.954,244 173,241.015 173,237.395 L173,60.451 C172.582,62.887 172.021,65.296 171.476,67.706 Q169.271,76.945 166.406,83.305 Q163.541,89.666 158.845,94.015 Q154.795,97.765 151.788,97.061 Q148.78,96.357 147.076,91.285 L146.712,89.95 C146.359,92.025 146.703,90.011 145.407,95.938 Q143.984,101.78 141.759,106.839 Q139.534,111.899 136.012,115.16 Q133.312,117.661 131.307,116.846 Q129.302,116.032 128.212,112.789 Q127.653,111.126 127.431,109.205 L127.343,108.249 C125.765,114.599 126.562,111.845 125.09,116.552 Q123.13,122.402 120.033,127.614 Q116.936,132.827 112.182,137.23 Q110.421,138.86 108.698,139.802 Q106.975,140.743 105.496,140.695 Q104.018,140.647 102.799,139.54 C102.033,138.711 102.361,139.157 101.807,138.207 C101.189,141.107 100.264,143.926 99.243,146.705 Q97.684,150.656 95.395,152.776 Q93.399,154.624 92.035,154.688 Q90.672,154.752 89.712,153.842 Q88.752,152.932 88.16,151.516 Q87.569,150.101 87.178,148.937 L86.946,148.934 Q86.538,151.383 85.983,153.969 Q85.428,156.555 84.57,159.039 Q83.712,161.524 82.569,163.619 Q81.426,165.713 79.841,167.181 Q77.023,169.79 74.789,168.752 Q72.554,167.714 70.794,162.475 Q69.564,158.816 69.556,153.753 Q69.548,148.691 70.849,143.288 Q72.15,137.885 74.739,132.762 Q77.327,127.639 81.26,123.997 Q83.549,121.877 85.297,122.384 Q87.045,122.891 88.208,124.977 L88.325,124.868 L88.398,119.13 L96.621,111.079 Q96.423,113.007 96.094,116.037 Q95.765,119.068 95.402,122.566 Q95.038,126.065 94.745,129.772 Q94.451,133.478 94.321,136.87 Q94.191,140.262 94.301,142.994 Q94.412,145.727 94.915,147.224 Q95.725,149.636 97.075,148.385 Q98.308,147.244 99.422,144.031 C100.179,141.846 100.776,139.608 101.314,137.359 C101.021,136.857 101.24,137.253 100.798,136.105 Q99.764,133.028 100.543,129.963 Q101.321,126.898 103.141,125.213 L103.729,124.746 C104.59,119.092 104.238,121.536 104.813,117.417 C104.353,116.76 104.588,117.16 104.184,116.178 Q103.513,114.182 103.544,111.755 Q103.575,109.327 104.348,106.703 Q105.121,104.08 106.661,101.563 Q108.201,99.046 110.549,96.872 Q113.953,93.719 116.64,93.357 Q119.328,92.994 120.362,96.071 Q121.144,98.399 120.518,100.887 Q119.892,103.375 118.366,104.789 Q117.016,106.039 115.506,106.128 Q115.61,104.833 115.509,103.618 Q115.409,102.402 114.99,101.155 Q114.291,99.076 113.057,98.038 Q111.823,97 110.297,98.413 Q108.947,99.664 108.631,101.701 Q108.315,103.738 109.042,105.9 Q109.741,107.979 111.222,108.951 Q112.703,109.924 114.317,110.719 Q115.931,111.514 117.454,112.611 Q118.977,113.708 119.788,116.12 Q120.738,118.947 120.485,121.744 Q120.232,124.541 118.857,127.777 L119.03,127.835 Q121.218,124.499 122.942,120.123 Q124.665,115.747 125.945,110.854 C127.161,105.689 126.8,107.582 127.236,105.217 L127.234,104.154 Q127.259,101.023 127.464,96.363 Q127.668,91.703 128.048,84.591 L123.294,88.994 L123.258,87.283 L128.129,82.771 L129.066,66.093 L137.085,58.121 L135.994,75.487 L144.036,68.04 L144.013,69.805 L135.913,77.307 Q135.762,80.064 135.414,84.638 Q135.066,89.213 134.831,94.01 Q134.596,98.808 134.629,103.029 Q134.663,107.251 135.361,109.33 Q135.836,110.743 136.618,110.892 Q137.399,111.041 138.397,110.117 Q139.923,108.704 141.22,105.922 Q142.517,103.139 143.605,99.623 Q144.694,96.107 145.512,92.242 C146.314,88.307 146.05,89.704 146.357,88.064 C145.846,83.141 145.887,85.386 146.042,81.338 Q146.489,75.799 148.182,70.415 Q149.875,65.031 152.428,60.377 Q154.981,55.723 157.799,53.113 Q160.616,50.504 162.869,50.108 L163.412,50.061 C164.945,50.199 165.586,51.309 166.1,52.622 Q167.078,55.533 165.809,59.543 Q164.539,63.553 162.327,67.619 Q160.115,71.685 157.677,75.197 Q155.24,78.708 153.823,80.674 Q153.985,81.615 154.206,82.501 Q154.427,83.386 154.706,84.218 Q155.209,85.715 155.933,86.953 Q156.657,88.19 157.578,88.755 Q158.499,89.32 159.632,89.142 Q160.765,88.965 162.115,87.715 Q164.874,85.16 167.079,79.356 Q169.285,73.551 171.06,66.238 Q172.164,61.508 172.825,57.406 L173,56.285 L173,12.605 C173,8.985 169.954,6 166.138,6 z M83.861,123.601 C82.603,124.019 83.099,123.725 82.299,124.342 Q81.067,125.484 80.196,127.817 Q79.325,130.15 78.779,133.218 Q78.232,136.287 77.971,139.745 Q77.709,143.204 77.74,146.501 Q77.77,149.799 78.139,152.728 Q78.508,155.658 79.151,157.571 Q79.626,158.984 80.469,160.003 Q81.311,161.022 82.485,159.935 Q83.718,158.793 84.9,154.754 Q86.083,150.715 86.787,145.483 Q87.492,140.251 87.458,134.884 Q87.425,129.518 86.167,125.776 Q85.525,123.863 84.411,123.641 L83.861,123.601 z M105.187,117.951 C104.66,121.621 104.975,119.426 104.242,124.534 C105.169,124.171 104.716,124.241 105.589,124.254 Q106.805,124.436 107.476,126.432 Q108.091,128.261 107.635,129.883 Q107.179,131.504 106.24,132.374 Q105.536,133.026 104.982,133.211 Q104.913,134.149 105.22,135.063 Q106.114,137.724 107.601,138.255 Q109.088,138.787 111.025,136.993 Q113.549,134.655 114.083,131.435 Q114.617,128.214 113.639,125.304 Q113.052,123.558 111.73,122.601 Q110.408,121.645 108.925,120.783 Q107.443,119.92 106.107,118.922 C105.355,118.262 105.644,118.602 105.187,117.951 z M158.189,54.489 C157.316,54.831 157.674,54.609 157.077,55.09 Q155.786,56.286 154.918,59.543 Q154.05,62.8 153.669,66.588 Q153.287,70.376 153.27,73.99 Q153.253,77.604 153.633,79.651 Q155.847,76.619 157.296,73.26 Q158.745,69.901 159.482,66.711 Q160.219,63.521 160.196,60.706 Q160.174,57.892 159.503,55.896 C159.172,54.985 159.1,54.792 158.189,54.489 z" fill="#000000" fill-opacity="0.199"/>
  </g>
</svg>
